X:1
T:Si mon languir
T:Si mon languir
T:Josquin Baston
C:Josquin Baston
%%score [ 1 2 3 4 ]
L:1/8
Q:1/4=84
M:2/2
K:F
V:1 treble nm="Superius" snm="S"
V:2 treble-8 nm="Tenor 1" snm="T1"
V:3 treble-8 nm="Tenor 2" snm="T2"
V:4 bass nm="Bass" snm="B"
V:1
 z4 F4 | E2 E2 F4 | z8 | F4 E2 E2 | F4 G4 | A3 G F2 E2 | F6 ED | E4 z2 E2 | E2 E2 G2 A2 | %9
w: Si|mon lan- guir,||si mon lan-|guir t'est|grand con- ten- te-|ment, _ _|_ pour|toy ma- da- me|
 B3 A G2 F2 | E2 CD EF G2- | G2 F4 E2 | F4 z2 F2 | E2 E2 F4 | z8 | F4 E2 E2 | F4 G4 | A3 G F2 E2 | %18
w: en _ grey je|prens _ _ _ _ _|_ _ la|mort, ne|re- gret- tant,||ne re- gret-|tant qu'ung|point tant seul- le-|
 F6 ED | E4 z2 E2 | E2 E2 G2 A2 | B3 A G2 F2 | E2 CD EF G2- | GF F4 E2 | F4 z2 F2 | F4 _E4 | %26
w: ment, _ _|_ c'est|que je meurs à|faul- * * te|de con- * * * *||fort, O|quel tour-|
 D4 F4 | F2 F2 G4- | G2 G2 A4 | A4 A2 A2 | A6 A2 | B3 B B2 A2- | AG G4 F2 |: z2 F2 F4 | GFGA BAGF | %35
w: ment, 0|ri- gou- reulx|_ ef- fort,|me ren- dre'à|mort et|me tol- lier la|_ _ vi- e,|sans en-|du- * * * * * * *|
 E2 E2 E2 E2 | F4 F4 | E4 z4 | F4 F2 F2 | D2 D2 G4- | G2 FE D4 | z2 E2 E2 E2 | FEDC D2 G2 | %43
w: rer que par ung|re- con-|fort,|loy- al- le-|ment de moy|_ _ _ _|tu sois ser-|vi _ _ _ e, tu|
 G2 G2 E2 E2 | A3 G F2 A2 | GF F4 E2 | F3 E DC D2 | E4 C2 c2- | cB AG FGAF | GF F4 E2 | F8 :| %51
w: sois ser- vi- e,|ser- * * vi-||e, _ _ _ _|_ _ ser-||* * vi- *|e.|
V:2
 z8 | c4 A2 B2 | cB AG F2 G2 | A2 F2 c3 B | A4 z2 c2 | c2 A2 B2 G2 | F8 | z2 G2 G2 G2 | %8
w: |Si mon lan-|guir _ _ _ _ _|_ _ _ _|* t'est|grand con- ten- te-|ment,|pour toy ma|
 cBcd e2 e2 | f3 e d2 d2 | c2 G2 c2 d2 | c2 B2 c2 c2 | c2 A2 F4 | z2 c2 A2 B2 | cB AG F2 G2 | %15
w: da- * * * me en|grey _ _ je|prens _ _ _|_ la mort, je|prens la mort,|ne re- gret-|tant, _ _ _ _ ne|
 A2 F2 c3 B | A4 z2 c2 | c2 A2 B2 G2 | F8 | z2 G2 G2 G2 | cBcd e2 e2 | f3 e d2 d2 | c2 G2 c2 d2 | %23
w: re- gret- tant _|_ qu'ung|point tant seul- le-|ment,|c'est que je|meurs _ _ _ _ à|faul- * * te|de con- * *|
 c2 B2 c4- | c4 z2 c2 | d4 B4 | B4 d4 | d2 d2 d4 | e4 f4- | f2 f2 c2 f2 | e2 e2 f2 f2 | %31
w: * * fort,|_ O|quel tour-|ment, O|ri- gou- reulx|ef- fort,|_ me ren- dre'à|mort et me tol-|
 g3 f/e/ d2 A2 | c4 d4 |: z2 d2 d4 | e4 f2 ed | c2 c2 c2 c2 | c4 d4 | c2 c2 c2 c2 | A2 A2 d3 c | %39
w: lier _ _ _ la|vi- e,|sans en-|du- * * *|rer que par ung|re- con-|fort, loy- al- le-|ment de moy _|
 BA B2 G2 _e2 | d2 c4 B2 | c2 c2 c2 c2 |"^-natural" A2 c4 B2 | c6 G2 | c2 c2 d4- | d2 B2 c3 B | %46
w: _ _ _ tu sois|ser- vi- *|e, tu sois ser-|vi- * *|e, tu|sois ser- vi-||
 AG c4 B2 | c4 G4 | c2 c2 d4- | d2 B2 c4 | A8 :| %51
w: |e, tu|sois ser- vi-||e.|
V:3
 c4 A2 B2 | cB AG F2 d2 | A2 c2 d2 c2- | cB A2 G4 | z2 F2 D2 E2 | F2 c2 d2 c2- | c2 BA B c2 B | %7
w: Si mon lan-|guir, _ _ _ _ si|mon lan- guir _|_ _ _ _|t'est grand con-|ten- * * te-||
 c4 z2 G2 | G2 G2 c2 c2 | d3 c B2 B2 | G2 c2 c2 B2 | A2 GF G2 G2 | F2 c2 A2 B2 | cB AG F2 d2 | %14
w: ment, pour|toy ma da- me|en _ grey je|prens la mort, je|prens _ _ _ la|mort, ne re- gret-|tant, _ _ _ _ ne|
 A2 c2 d2 c2- | cB A2 G4 | z2 F2 D2 E2 | F2 c2 d2 c2- | c2 BA B c2 B | c4 z2 G2 | G2 G2 c2 c2 | %21
w: re- gret- tant _|_ _ _ _|qu'ung point tant|seul- * * le-||ment, c'est|que je meurs à|
 d3 c B2 B2 | G2 c2 c2 B2 | A2 GF G2 G2 | F4 z2 A2 | A4 G4 | F4 B4 | A2 A2 B2 B2 | c4 z2 c2 | %29
w: faul- * * te|de con- fort, à|faul- te _ de con-|fort, O|quel tour-|ment, O|ri- gou- reulx ef-|fort, me|
 c3 B A2 d2- | d2 c2 d2 d2 | d3 c B2 c2- | cB AG A4 |: z2 A2 A4 | c4 d4 | G4 G2 G2 | A4 B4 | %37
w: re _ dre'à mort|_ et- me tol-|lier _ la vi-|* * * * e,|sans en-|du- rer|que par ung|re- con-|
 G4 A4 | c2 c2 F4 | z8 | G4 G2 G2 | E2 E2 A3 G | F2 A2 G4 | C2 G3 FED | E2 A2 A2 A2 | BAGF G4 | %46
w: fort, loy-|al- le- ment,||de moy tu|sois ser- vi- *||e, tu _ _ _|sois ser- vi- e,|ser- * * * vi-|
 F4 z2 G2 | G2 G2 E2 E2 | A6 A2 | BAGF G4 | F8 :| %51
w: e, tu|sois de moy ser-|vi- e,|ser- * * * vi-|e.|
V:4
 z8 | z8 | F,4 D,2 E,2 | F,4 C,4 | D,3 C, B,,2 C,2 | F,,2 F,,2 B,,2 C,2 | D,6 D,2 | C,8 | %8
w: ||Si mon lan-|guir, t'est|grand _ _ con-|ten- te- ment, con-|ten- te-|ment,|
 C,4 C,2 C,2 | B,,6 B,,2 | C,3 B,, A,,2 B,,2 | C,2 D,2 C,4 | z2 F,2 F,2 D,2 | C,4 z4 | %14
w: pour toy me|da- me|jen _ grey je|prens la mort,|ne re- gret-|tant,|
 F,4 D,2 E,2 | F,4 C,4 | D,3 C, B,,2 C,2 | F,,2 F,,2 B,,2 C,2 | D,6 D,2 | C,8 | C,4 C,2 C,2 | %21
w: ne re- gret-|tant qu'ung|point _ _ tant|seul- le ment, tant|seul- le-|ment,|que je meurs|
 B,,6 B,,2 | C,3 B,, A,,2 B,,2 | C,2 D,2 C,4 | F,,4 z2 F,2 | D,4 _E,4 | B,,4 B,,4 | D,2 D,2 G,4 | %28
w: à- faul-|te de con- *||fort, O|quel tour-|ment, O|ri- gou- reulx|
 C,4 F,4 | F,4 F,2 D,2 | A,4 D,4 | G,3 G, G,2 F,2 | _E,4 D,4 |: z2 D,2 D,4 | C,4 B,,4 | %35
w: ef- fort,|me ren- dre'à|mort et|me tol- lier la|vi- e,|sans en-|du- rer|
 C,4 C,2 C,2 |"^-natural" F,4 B,,4 | C,4 F,4 | F,2 F,2 D,2 D,2 |"^b" G,3 F, E,2 C,2 | %40
w: que par ung|re- con-|fort, loy-|al- le- ment, de|moy _ _ tu|
 B,,2 C,2 G,,4 | C,4 z4 | z8 | C,4 C,2 C,2 | A,,2 A,,2 D,3 C, | B,,2 D,2 C,4 | F,,4 z4 | %47
w: sois ser- vi-|e,||tu sois ser-|vi- e, ser- *|* * vi-|e,|
 C,4 C,2 C,2 | A,,2 A,,2 D,3 C, | B,,2 D,2 C,4 | F,,8 :| %51
w: tu sois ser-|vi- e, ser- *|* * vi-|e.|

